icons/glyphs/glyph-tablet.svg

<?xml version="1.0" encoding="UTF-8" standalone="no"?><svg height="16" viewBox="0 0 4.2333333 4.2333333" width="16" xmlns="http://www.w3.org/2000/svg"><sodipodi:namedview/><metadata><rdf:RDF><cc:Work><dc:format>image/svg+xml</dc:format><dc:type/><dc:title/></cc:Work></rdf:RDF></metadata><path d="m .60742188 2.8457031c-.33673063 0-.60742188.2706913-.60742188.6074219v9.09375c0 .336731.27069125.607422.60742188.607422h14.78515612c.336731 0 .607422-.270693.607422-.607422v-9.09375c0-.3367304-.270692-.6074219-.607422-.6074219zm11.52148412 1.546875c.134797.035807.227287.1845156.179688.3417969-.01516.049274-.06288.095518-.275391.2695312l-.259765.2109376.07812.099609c.08363.1075162.100977.1744982.06836.2792969-.01525.049266-.061.095292-.251953.2519531-.20157.1637292-.234714.1969444-.228516.2304688.01962.1219903.02899.2886713.02539.4589843-.0086.4291987-.144056.8335038-.375 1.1171876-.07974.0997968-2.2357275 1.8524131-2.3164015 1.8847659-.1166778.046439-.2815168-.0283742-.3261719-.1464844-.0269064-.0701594-.0216545-.17991.0117188-.2304688.0118273-.0184021.5144667-.430985 1.1152344-.9160156 1.0863712-.8774275 1.0925422-.8845216 1.1738282-1.0136718.04553-.072261.100949-.1848334.121094-.25.03911-.1189025.09308-.5059394.07422-.5292969-.0058-.00722-.404849.3034831-.886718.6914062l-.8750004.7050781-.4023437-.5c-.2199921-.2732674-.4012695-.5055458-.4003927-.5136718.0010508-.0097263.607042-.5029786 1.3476563-1.0976563 1.1738585-.9435299 1.3504795-1.0806094 1.4140625-1.0917969.09203-.016328.177567.017763.253906.1015626l.05469.0625.242187-.1972657c.13299-.1071345.265605-.2026859.292969-.2128906.05064-.016705.0996-.017803.144531-.00586zm-10.5175779 2.7285157c.24385 0 .4414063.1956017.4414063.4394531v.8789062c0 .2438514-.1975564.4394531-.4414063.4394531-.2438497 0-.4394531-.1956055-.4394531-.4394531v-.8789062c0-.2438514.1956037-.4394532.4394531-.4394531zm12.7773439 0c .24385 0 .439453.1956017.439453.4394531v.8789062c0 .2438514-.195602.4394531-.439453.4394531s-.439453-.1956055-.439453-.4394531v-.8789062c0-.2438514.195602-.4394532.439453-.4394531zm-6.4218751.037109c.00491.0005299.1911312.2289391.4140625.5058594l.4042968.5019534-1.7246093 1.3925782c-1.7943122 1.4444892-1.8672018 1.4992322-2.2519531 1.6875002-.3933922.192211-1.0430804.423189-1.5273438.544922-.156842.03885-.1601743.0709.027344-.251954.2907429-.503798.6719998-1.039149.9824218-1.375.1561434-.1686367.3772261-.3546412 1.9218748-1.5996089.9600839-.7729039 1.7490004-1.4067799 1.7539063-1.4062503z" fill="#d0d0d0" stroke-linejoin="round" stroke-width=".8" transform="scale(.26458333)"/></svg>

<?xml version="1.0" encoding="UTF-8" standalone="no"?>
<!-- Created with Inkscape (http://www.inkscape.org/) -->

<svg
   xmlns:dc="http://purl.org/dc/elements/1.1/"
   xmlns:cc="http://creativecommons.org/ns#"
   xmlns:rdf="http://www.w3.org/1999/02/22-rdf-syntax-ns#"
   xmlns:svg="http://www.w3.org/2000/svg"
   xmlns="http://www.w3.org/2000/svg"
   xmlns:sodipodi="http://sodipodi.sourceforge.net/DTD/sodipodi-0.dtd"
   xmlns:inkscape="http://www.inkscape.org/namespaces/inkscape"
   width="16"
   height="16"
   viewBox="0 0 4.2333333 4.2333333"
   version="1.1"
   id="svg8"
   inkscape:version="0.92+devel (4546dc857e, 2017-07-25, custom)"
   sodipodi:docname="glyph-tablet.svg">
  <defs
     id="defs2" />
  <sodipodi:namedview
     id="base"
     pagecolor="#002466"
     bordercolor="#ffffff"
     borderopacity="0.38039216"
     inkscape:pageopacity="1"
     inkscape:pageshadow="2"
     inkscape:zoom="38.714096"
     inkscape:cx="8"
     inkscape:cy="8"
     inkscape:document-units="px"
     inkscape:current-layer="svg8"
     inkscape:document-rotation="0"
     showgrid="false"
     inkscape:showpageshadow="false"
     borderlayer="true"
     inkscape:window-width="1920"
     inkscape:window-height="1051"
     inkscape:window-x="0"
     inkscape:window-y="0"
     inkscape:window-maximized="1"
     units="px"
     inkscape:snap-page="true"
     inkscape:snap-grids="false"
     inkscape:snap-to-guides="false"
     inkscape:object-paths="true" />
  <metadata
     id="metadata5">
    <rdf:RDF>
      <cc:Work
         rdf:about="">
        <dc:format>image/svg+xml</dc:format>
        <dc:type
           rdf:resource="http://purl.org/dc/dcmitype/StillImage" />
        <dc:title></dc:title>
      </cc:Work>
    </rdf:RDF>
  </metadata>
  <path
     style="opacity:1;fill:#d0d0d0;stroke-width:0.80000001;stroke-linejoin:round"
     d="M 0.60742188,2.8457031 C 0.27069125,2.8457031 0,3.1163944 0,3.453125 v 9.09375 c 0,0.336731 0.27069125,0.607422 0.60742188,0.607422 H 15.392578 C 15.729309,13.154297 16,12.883604 16,12.546875 V 3.453125 C 16,3.1163946 15.729308,2.8457031 15.392578,2.8457031 Z M 12.128906,4.3925781 c 0.134797,0.035807 0.227287,0.1845156 0.179688,0.3417969 -0.01516,0.049274 -0.06288,0.095518 -0.275391,0.2695312 l -0.259765,0.2109376 0.07812,0.099609 c 0.08363,0.1075162 0.100977,0.1744982 0.06836,0.2792969 -0.01525,0.049266 -0.061,0.095292 -0.251953,0.2519531 -0.20157,0.1637292 -0.234714,0.1969444 -0.228516,0.2304688 0.01962,0.1219903 0.02899,0.2886713 0.02539,0.4589843 -0.0086,0.4291987 -0.144056,0.8335038 -0.375,1.1171876 C 11.010099,7.7521403 8.8541115,9.5047566 8.7734375,9.5371094 8.6567597,9.5835484 8.4919207,9.5087352 8.4472656,9.390625 8.4203592,9.3204656 8.4256111,9.210715 8.4589844,9.1601562 8.4708117,9.1417541 8.9734511,8.7291712 9.5742188,8.2441406 10.66059,7.3667131 10.666761,7.359619 10.748047,7.2304688 c 0.04553,-0.072261 0.100949,-0.1848334 0.121094,-0.25 0.03911,-0.1189025 0.09308,-0.5059394 0.07422,-0.5292969 -0.0058,-0.00722 -0.404849,0.3034831 -0.886718,0.6914062 l -0.8750004,0.7050781 -0.4023437,-0.5 C 8.5593068,7.0743888 8.3780294,6.8421104 8.3789062,6.8339844 8.379957,6.8242581 8.9859482,6.3310058 9.7265625,5.7363281 10.900421,4.7927982 11.077042,4.6557187 11.140625,4.6445312 c 0.09203,-0.016328 0.177567,0.017763 0.253906,0.1015626 l 0.05469,0.0625 0.242187,-0.1972657 c 0.13299,-0.1071345 0.265605,-0.2026859 0.292969,-0.2128906 0.05064,-0.016705 0.0996,-0.017803 0.144531,-0.00586 z M 1.6113281,7.1210938 c 0.24385,0 0.4414063,0.1956017 0.4414063,0.4394531 v 0.8789062 c 0,0.2438514 -0.1975564,0.4394531 -0.4414063,0.4394531 -0.2438497,0 -0.4394531,-0.1956055 -0.4394531,-0.4394531 V 7.5605469 c 0,-0.2438514 0.1956037,-0.4394532 0.4394531,-0.4394531 z m 12.7773439,0 c 0.24385,0 0.439453,0.1956017 0.439453,0.4394531 v 0.8789062 c 0,0.2438514 -0.195602,0.4394531 -0.439453,0.4394531 -0.243851,0 -0.439453,-0.1956055 -0.439453,-0.4394531 V 7.5605469 c 0,-0.2438514 0.195602,-0.4394532 0.439453,-0.4394531 z m -6.4218751,0.037109 c 0.00491,5.299e-4 0.1911312,0.2289391 0.4140625,0.5058594 L 8.7851562,8.1660156 7.0605469,9.5585938 C 5.2662347,11.003083 5.1933451,11.057826 4.8085938,11.246094 4.4152016,11.438305 3.7655134,11.669283 3.28125,11.791016 c -0.156842,0.03885 -0.1601743,0.0709 0.027344,-0.251954 0.2907429,-0.503798 0.6719998,-1.039149 0.9824218,-1.375 C 4.4471592,9.9954253 4.6682419,9.8094208 6.2128906,8.5644531 7.1729745,7.7915492 7.961891,7.1576732 7.9667969,7.1582028 Z"
     transform="scale(0.26458333)"
     id="rect811"
     inkscape:connector-curvature="0"
     inkscape:label="#" />
</svg>
